assets/svg/to-content-arrow.svg

<svg height="34" viewBox="0 0 29 34" width="29" xmlns="http://www.w3.org/2000/svg"><path d="m721.142136 865.313708 11.727922-11.727922 1.414213 1.414214-12.727922 12.727922-1.414213 1.414214-14.142136-14.142136 1.414214-1.414214 11.727922 11.727922v-29.313708h2z" fill="#111" fill-rule="evenodd" transform="translate(-706 -836)"/></svg>

<?xml version="1.0" encoding="UTF-8"?>
<svg width="29px" height="34px" viewBox="0 0 29 34" version="1.1" xmlns="http://www.w3.org/2000/svg" xmlns:xlink="http://www.w3.org/1999/xlink">
    <!-- Generator: Sketch 48.1 (47250) - http://www.bohemiancoding.com/sketch -->
    <title>Combined Shape</title>
    <desc>Created with Sketch.</desc>
    <defs></defs>
    <g id="Page-Hero-Template-Desktop" stroke="none" stroke-width="1" fill="none" fill-rule="evenodd" transform="translate(-706.000000, -836.000000)">
        <path d="M721.142136,865.313708 L732.870058,853.585786 L734.284271,855 L721.556349,867.727922 L720.142136,869.142136 L706,855 L707.414214,853.585786 L719.142136,865.313708 L719.142136,836 L721.142136,836 L721.142136,865.313708 Z" id="Combined-Shape" fill="#111111"></path>
    </g>
</svg>
